X: 7
T: Missa Au travail suis / Sanctus
N: Derived from Ock1002d-Missa_Au_travail_suis-Sanctus.krn
C: Johannes Ockeghem
%%abc-version 2.0
%%abcx-abcm2ps-target-version 5.9.1 (29 Sep 2008)
%%abc-creator hum2abc beta
%%abcx-conversion-date 2019/02/17 07:26:13
%%abc-edited-by Jesse Rodin
%%abc-edited-by Jesse Rodin 8-17-2012
%%abcx-initial-encoding-date 2012/08/17/
%%humdrum-veritas 1544390079
%%humdrum-veritas-data 2149657364
%%linebreak <none>
%%barnumbers 0
L: 1/4
M: 4/2
Q: 1/2=120
%%staves [1 2 3 4]
V: 1 clef=treble
V: 2 clef=treble
V: 3 clef=bass
V: 4 clef=bass
K: C
[V:1] z8 | 
[V:2] z8 | 
[V:3] D,4F,4 | 
[V:4] z8 | 
[V:1] z4A4 | 
[V:2] z8 | 
[V:3] E,4A,,4 | 
[V:4] z8 | 
[V:1] c4B4 | 
[V:2] z8 | 
[V:3] z4G,4 | 
[V:4] z8 | 
[V:1] E4z4 | 
[V:2] C4F4 | 
[V:3] A,4F,2D,2 | 
[V:4] z8 | 
[V:1] G4A4 | 
[V:2] E4A,4 | 
[V:3] E,4D,2C,2 | 
[V:4] z8 | 
[V:1] F2D2E4 | 
[V:2] z4C4 | 
[V:3] D,2B,,2A,,4 | 
[V:4] z8 | 
[V:1] D2F2G2A2- | 
[V:2] D4B,2C2 | 
[V:3] z8 | 
[V:4] z4z2F,2- | 
[V:1] A2c2B2A2- | 
[V:2] A,4G,2F,2 | 
[V:3] z8 | 
[V:4] F,4G,2D,2 | 
[V:1] AGG4^F2 | 
[V:2] G,4A,4 | 
[V:3] z8 | 
[V:4] E,4D,4 | 
[V:1] G4z4 | 
[V:2] G,4z4 | 
[V:3] G,,4B,,4 | 
[V:4] z2D,4F,2 | 
[V:1] z8 | 
[V:2] z8 | 
[V:3] C,2D,3A,,C,2 | 
[V:4] E,2D,2A,2A,2- | 
[V:1] z8 | 
[V:2] z8 | 
[V:3] B,,4A,,4 | 
[V:4] A,2G,2A,3B, | 
[V:1] z8 | 
[V:2] z8 | 
[V:3] z4A,3B, | 
[V:4] C2F,4D,2 | 
[V:1] z4A4- | 
[V:2] z8 | 
[V:3] C4F,4- | 
[V:4] C,4z4 | 
[V:1] A2A2A4 | 
[V:2] z2F4F2 | 
[V:3] F,2F,2F,4 | 
[V:4] C6C2 | 
[V:1] A4_B2A2- | 
[V:2] F4z2F2- | 
[V:3] F,4E,2F,2 | 
[V:4] C3B,G,2F,2 | 
[V:1] A2F2E4 | 
[V:2] F2D2E2C2- | 
[V:3] D,4C,4 | 
[V:4] A,2B,2C4 | 
[V:1] z4G3A | 
[V:2] C2F3DE2 | 
[V:3] z2C4B,2 | 
[V:4] A,2F,2G,4 | 
[V:1] _B2A4F2- | 
[V:2] F4z4 | 
[V:3] D2C2A,2_B,2 | 
[V:4] F,4z4 | 
[V:1] F2E2F4 | 
[V:2] z4D4 | 
[V:3] G,3F,D,4 | 
[V:4] z4A,3G, | 
[V:1] G2F2A2B2 | 
[V:2] E2F4D2 | 
[V:3] C,2D,4B,,2 | 
[V:4] E,2D,2F,2G,2 | 
[V:1] c4A4 | 
[V:2] C2E2F2D2- | 
[V:3] A,,2A,4F,2 | 
[V:4] A,4D,2A,2- | 
[V:1] z4F4- | 
[V:2] D2^C2D4 | 
[V:3] E,4D,4- | 
[V:4] A,2G,2A,4- | 
[V:1] F2D2E4- | 
[V:2] z4C4- | 
[V:3] D,4z4 | 
[V:4] A,4z4 | 
[V:1] E2F2G2FG | 
[V:2] C4C4- | 
[V:3] z8 | 
[V:4] z8 | 
[V:1] A2c2B2A2- | 
[V:2] C4D2A,2 | 
[V:3] z8 | 
[V:4] z8 | 
[V:1] A^GG^FA4 | 
[V:2] B,4A,4 | 
[V:3] z8 | 
[V:4] z8 | 
[V:1] G2E2F2E2- | 
[V:2] z4A,4 | 
[V:3] z8 | 
[V:4] z8 | 
[V:1] E2A3GA2 | 
[V:2] G,2F,2A,3B, | 
[V:3] z8 | 
[V:4] z8 | 
[V:1] G2E2D4 | 
[V:2] C2C4B,2 | 
[V:3] z8 | 
[V:4] z8 | 
[V:1] z2E3FG2- | 
[V:2] C8 | 
[V:3] z8 | 
[V:4] z8 | 
[V:1] GF/G/A2G2c2- | 
[V:2] C4C3D | 
[V:3] z8 | 
[V:4] z8 | 
[V:1] c6c2- | 
[V:2] E2F3GA2- | 
[V:3] z8 | 
[V:4] z8 | 
[V:1] c6B2- | 
[V:2] A2E3CD2- | 
[V:3] z8 | 
[V:4] z8 | 
[V:1] B2A4^G2 | 
[V:2] DA,C2B,4 | 
[V:3] z8 | 
[V:4] z8 | 
[V:1] A4z4 | 
[V:2] A,4z4 | 
[V:3] z4G,4- | 
[V:4] z4_B,4- | 
[V:1] z8 | 
[V:2] z8 | 
[V:3] G,2F,2F,4 | 
[V:4] B,2A,2A,4 | 
[V:1] z8 | 
[V:2] z8 | 
[V:3] E,2F,2D,4 | 
[V:4] G,2A,4F,2 | 
[V:1] z8 | 
[V:2] z8 | 
[V:3] C,4B,,2C,2 | 
[V:4] E,3C,D,2C,2- | 
[V:1] z8 | 
[V:2] z8 | 
[V:3] E,2D,3C,F,2- | 
[V:4] C,2F,4A,2 | 
[V:1] z8 | 
[V:2] z8 | 
[V:3] F,2E,2F,4 | 
[V:4] G,4F,4 | 
[V:1] z4G4- | 
[V:2] z4C4- | 
[V:3] z4C,4- | 
[V:4] z4E,4- | 
[V:1] G4B4- | 
[V:2] C4D4- | 
[V:3] C,4B,,4- | 
[V:4] E,4G,4- | 
[V:1] B4!fermata!c4- | 
[V:2] D4!fermata!E4- | 
[V:3] B,,4!fermata!A,,4- | 
[V:4] G,4!fermata!A,4- | 
[V:1] c4A4- | 
[V:2] E4F4- | 
[V:3] A,,4F,4- | 
[V:4] A,4C4- | 
[V:1] A4A4- | 
[V:2] F4F4- | 
[V:3] F,4F,4- | 
[V:4] C4C4- | 
[V:1] A4A4 | 
[V:2] F4F4 | 
[V:3] F,4F,4 | 
[V:4] C4C4 | 
[V:1] A4G4- | 
[V:2] F4D4- | 
[V:3] F,4G,4- | 
[V:4] C4B,4- | 
[V:1] G4G4- | 
[V:2] D2C2C4- | 
[V:3] G,2E,2E,4- | 
[V:4] B,2G,2G,4- | 
[V:1] G2E2!fermata!E4- | 
[V:2] C4-!fermata!C4- | 
[V:3] E,4!fermata!A,,4- | 
[V:4] G,4!fermata!A,4- | 
[V:1] E4D4 & x4F4 ||  
[V:2] C4D4 ||  
[V:3] A,,4D,4 & x4F,4 ||  
[V:4] A,4A,4 ||  
[V:1]  [K:C] [K:clef=treble][M:2/1]G8- | 
[V:2]  [K:C] [K:clef=treble][M:2/1]z8 | 
[V:3]  [K:C] [K:clef=bass][M:2/1]E,8- | 
[V:4]  [K:C] [K:clef=bass][M:2/1]z8 | 
[V:1] G8 | 
[V:2] z8 | 
[V:3] E,8- | 
[V:4] z8 | 
[V:1] G6E2 | 
[V:2] z8 | 
[V:3] E,8- | 
[V:4] z8 | 
[V:1] G4B4- | 
[V:2] z8 | 
[V:3] E,8 | 
[V:4] z8 | 
[V:1] B2A2A4- | 
[V:2] z8 | 
[V:3] D,8 | 
[V:4] z8 | 
[V:1] A4B4 | 
[V:2] z8 | 
[V:3] F,4G,4 | 
[V:4] z8 | 
[V:1] A4c4- | 
[V:2] z8 | 
[V:3] A,8 | 
[V:4] z8 | 
[V:1] c2B2G4 | 
[V:2] z8 | 
[V:3] E,8 | 
[V:4] z8 | 
[V:1] A4B4- | 
[V:2] z8 | 
[V:3] F,4E,4 | 
[V:4] z8 | 
[V:1] B4d4 | 
[V:2] z8 | 
[V:3] G,8 | 
[V:4] z8 | 
[V:1] c4A4- | 
[V:2] z8 | 
[V:3] A,8 | 
[V:4] z8 | 
[V:1] A2G2F2E2 | 
[V:2] z8 | 
[V:3] D,4A,4- | 
[V:4] z8 | 
[V:1] E8 | 
[V:2] z8 | 
[V:3] A,4G,4 | 
[V:4] z8 | 
[V:1] F4E4 | 
[V:2] z8 | 
[V:3] F,4A,4- | 
[V:4] z8 | 
[V:1] A6G2 | 
[V:2] z8 | 
[V:3] A,4B,4 | 
[V:4] z8 | 
[V:1] c4B4- | 
[V:2] z8 | 
[V:3] A,4G,4 | 
[V:4] z8 | 
[V:1] B2A2A4- | 
[V:2] z8 | 
[V:3] C8 | 
[V:4] z8 | 
[V:1] A4^G4 | 
[V:2] z8 | 
[V:3] B,8 | 
[V:4] z8 | 
[V:1] A8- | 
[V:2] z8 | 
[V:3] A,8- | 
[V:4] z8 | 
[V:1] A8 | 
[V:2] F8 | 
[V:3] A,8 | 
[V:4] D,8 | 
[V:1] z8 | 
[V:2] G4A4- | 
[V:3] z8 | 
[V:4] E,4D,4 | 
[V:1] z8 | 
[V:2] A4D4 | 
[V:3] z8 | 
[V:4] F,8 | 
[V:1] z8 | 
[V:2] E4G4- | 
[V:3] z8 | 
[V:4] G,8 | 
[V:1] z8 | 
[V:2] G2F2D4 | 
[V:3] z8 | 
[V:4] _B,8 | 
[V:1] z8 | 
[V:2] C4D4 | 
[V:3] z8 | 
[V:4] A,4F,4 | 
[V:1] z8 | 
[V:2] B,4C4 | 
[V:3] z8 | 
[V:4] G,4A,4- | 
[V:1] z8 | 
[V:2] F4E4 | 
[V:3] z8 | 
[V:4] A,4C4- | 
[V:1] z8 | 
[V:2] A6F2 | 
[V:3] z8 | 
[V:4] C4_B,4- | 
[V:1] z8 | 
[V:2] G4A4 | 
[V:3] z8 | 
[V:4] B,2A,G,F,4 | 
[V:1] z8 | 
[V:2] G2A3GA2 | 
[V:3] z8 | 
[V:4] C8- | 
[V:1] z8 | 
[V:2] G2E4C2 | 
[V:3] z8 | 
[V:4] C8 | 
[V:1] z8 | 
[V:2] D4C2F2- | 
[V:3] z8 | 
[V:4] _B,4A,4 | 
[V:1] z8 | 
[V:2] FGA4F2 | 
[V:3] z8 | 
[V:4] F,4A,4 | 
[V:1] z8 | 
[V:2] G2FGA4 | 
[V:3] z8 | 
[V:4] _B,2C4F,2 | 
[V:1] z8 | 
[V:2] F2F4E2 | 
[V:3] z8 | 
[V:4] A,2_B,2G,4 | 
[V:1] z8 | 
[V:2] F8 | 
[V:3] z4F,4 | 
[V:4] F,6E,D, | 
[V:1] z8 | 
[V:2] z8 | 
[V:3] E,2C,2D,2A,,2- | 
[V:4] C,2E,2D,2F,2 | 
[V:1] z8 | 
[V:2] z8 | 
[V:3] A,,2C,2B,,4 | 
[V:4] E,2A,4^G,2 | 
[V:1] z8 | 
[V:2] z8 | 
[V:3] A,,4B,,2C,2 | 
[V:4] A,4D,2E,2- | 
[V:1] z8 | 
[V:2] z8 | 
[V:3] A,,4G,,4 | 
[V:4] E,2D,C,B,,2E,2- | 
[V:1] z8 | 
[V:2] z8 | 
[V:3] z2G,,2A,,2C,2 | 
[V:4] E,D,B,,2C,2A,,2 | 
[V:1] z8 | 
[V:2] z8 | 
[V:3] B,,2G,,4A,,2 | 
[V:4] D,3C,B,,A,,A,,2- | 
[V:1] z8 | 
[V:2] z8 | 
[V:3] B,,4A,,3G,, | 
[V:4] A,,2G,,2C,3D, | 
[V:1] z8 | 
[V:2] z8 | 
[V:3] C,3D,E,2F,2 | 
[V:4] E,2F,2E,2A,2- | 
[V:1] z8 | 
[V:2] z8 | 
[V:3] D,4E,2G,2 | 
[V:4] A,2F,2G,2E,2 | 
[V:1] z8 | 
[V:2] z8 | 
[V:3] F,2D,4^C,2 | 
[V:4] D,2F,2E,4 | 
[V:1] z8 | 
[V:2] z8 | 
[V:3] !fermata!D,8 | 
[V:4] !fermata!D,8 | 
[V:1] z8 | 
[V:2] z8 | 
[V:3] z8 | 
[V:4] z8 | 
[V:1] G8- | 
[V:2] E8- | 
[V:3] C,8- | 
[V:4] E,8- | 
[V:1] G8 | 
[V:2] E8 | 
[V:3] C,8 | 
[V:4] E,8 | 
[V:1] B8- | 
[V:2] G8- | 
[V:3] B,,8- | 
[V:4] D,8- | 
[V:1] B8 | 
[V:2] G8 | 
[V:3] B,,8 | 
[V:4] D,8 | 
[V:1] !fermata!c8- | 
[V:2] !fermata!A8- | 
[V:3] !fermata!A,,8- | 
[V:4] !fermata!E,8- | 
[V:1] c8 | 
[V:2] A8 | 
[V:3] A,,8 | 
[V:4] E,8 | 
[V:1] A8- | 
[V:2] F8- | 
[V:3] D,8- | 
[V:4] F,8- | 
[V:1] A8 | 
[V:2] F8 | 
[V:3] D,8 | 
[V:4] F,8 | 
[V:1] A8- | 
[V:2] D8- | 
[V:3] F,8- | 
[V:4] A,8- | 
[V:1] A8 | 
[V:2] D8- | 
[V:3] F,8 | 
[V:4] A,8 | 
[V:1] A8- | 
[V:2] D8- | 
[V:3] F,8- | 
[V:4] D,8 | 
[V:1] A8 | 
[V:2] D8 | 
[V:3] F,8 | 
[V:4] D,8 | 
[V:1] B8- | 
[V:2] D8- | 
[V:3] G,8- | 
[V:4] G,,8- | 
[V:1] B4G4 | 
[V:2] D8 | 
[V:3] G,4E,4 | 
[V:4] G,,8 | 
[V:1] G8- | 
[V:2] E8- | 
[V:3] E,8- | 
[V:4] C,8- | 
[V:1] G8 | 
[V:2] E4C4 | 
[V:3] E,8- | 
[V:4] C,4A,,4 | 
[V:1] !fermata!A8- | 
[V:2] !fermata!C8- | 
[V:3] E,8- | 
[V:4] !fermata!A,,8- | 
[V:1] A8 | 
[V:2] C8 | 
[V:3] E,8 | 
[V:4] A,,8 | 
[V:1] A8 |]  
[V:2] D8 |]  
[V:3] D,8 |]  
[V:4] D,8 & A,8 |]  



